;FLAVOR:Marlin
;TIME:6357
;Filament used: 3.22051m
;Layer height: 0.2
;MINX:39
;MINY:69
;MINZ:0.2
;MAXX:181
;MAXY:151
;MAXZ:3
;Generated with Cura_SteamEngine 4.9.1
M140 S60
M105
M190 S60
M104 S200
M105
M109 S200
M82 ;absolute extrusion mode
; Ender 3 Custom Start G-code
G92 E0 ; Reset Extruder
G28 ; Home all axes
G1 Z2.0 F3000 ; Move Z Axis up little to prevent scratching of Heat Bed
G1 X0.1 Y20 Z0.3 F5000.0 ; Move to start position
G1 X0.1 Y200.0 Z0.3 F1500.0 E15 ; Draw the first line
G1 X0.4 Y200.0 Z0.3 F5000.0 ; Move to side a little
G1 X0.4 Y20 Z0.3 F1500.0 E30 ; Draw the second line
G92 E0 ; Reset Extruder
G1 Z2.0 F3000 ; Move Z Axis up little to prevent scratching of Heat Bed
G1 X5 Y20 Z0.3 F5000.0 ; Move over to prevent blob squish
G92 E0
G92 E0
G1 F1500 E-6.5
;LAYER_COUNT:15
;LAYER:0
M107
G0 F6000 X44.412 Y70.539 Z0.2
;TYPE:SKIRT
G1 F1500 E0
G1 F1200 X45.239 Y70.097 E0.03119
G1 X46.101 Y69.727 E0.06239
G1 X46.991 Y69.431 E0.09358
G1 X47.903 Y69.213 E0.12477
G1 X48.83 Y69.072 E0.15596
G1 X49.701 Y69.013 E0.18499
G1 X50.022 Y69.004 E0.19567
G1 X50.33 Y69 E0.20592
G1 X169.293 Y69 E4.16265
G1 X170.149 Y69.011 E4.19112
G1 X171.085 Y69.065 E4.2223
G1 X172.013 Y69.197 E4.25348
G1 X172.927 Y69.409 E4.28468
G1 X173.819 Y69.698 E4.31587
G1 X174.684 Y70.061 E4.34707
G1 X175.514 Y70.497 E4.37825
G1 X176.305 Y71.002 E4.40947
G1 X177.049 Y71.573 E4.44066
G1 X177.742 Y72.205 E4.47186
G1 X178.379 Y72.893 E4.50304
G1 X178.954 Y73.634 E4.53424
G1 X179.465 Y74.42 E4.56542
G1 X179.907 Y75.248 E4.59664
G1 X180.276 Y76.11 E4.62782
G1 X180.571 Y77 E4.65901
G1 X180.789 Y77.912 E4.6902
G1 X180.929 Y78.84 E4.72141
G1 X180.987 Y79.701 E4.75011
G1 X180.996 Y80.021 E4.76076
G1 X181 Y80.33 E4.77104
G1 X180.999 Y139.4 E6.73571
G1 X180.99 Y140.127 E6.7599
G1 X180.939 Y141.064 E6.79111
G1 X180.807 Y141.992 E6.82228
G1 X180.598 Y142.906 E6.85347
G1 X180.311 Y143.799 E6.88466
G1 X179.949 Y144.665 E6.91588
G1 X179.515 Y145.496 E6.94706
G1 X179.011 Y146.287 E6.97826
G1 X178.442 Y147.032 E7.00944
G1 X177.811 Y147.727 E7.04066
G1 X177.124 Y148.365 E7.07184
G1 X176.385 Y148.942 E7.10303
G1 X175.599 Y149.454 E7.13423
G1 X174.773 Y149.897 E7.1654
G1 X173.911 Y150.269 E7.19663
G1 X173.022 Y150.565 E7.22779
G1 X172.11 Y150.785 E7.259
G1 X171.183 Y150.926 E7.29018
G1 X170.299 Y150.987 E7.31966
G1 X169.978 Y150.996 E7.33034
G1 X169.67 Y151 E7.34058
G1 X50.565 Y150.999 E11.30203
G1 X49.867 Y150.99 E11.32525
G1 X48.931 Y150.938 E11.35643
G1 X48.002 Y150.806 E11.38764
G1 X47.088 Y150.596 E11.41883
G1 X46.195 Y150.309 E11.45002
G1 X45.33 Y149.946 E11.48123
G1 X44.499 Y149.512 E11.51241
G1 X43.708 Y149.008 E11.5436
G1 X42.963 Y148.438 E11.5748
G1 X42.269 Y147.807 E11.606
G1 X41.632 Y147.12 E11.63716
G1 X41.055 Y146.38 E11.66837
G1 X40.543 Y145.594 E11.69957
G1 X40.1 Y144.767 E11.73077
G1 X39.729 Y143.906 E11.76196
G1 X39.433 Y143.016 E11.79315
G1 X39.214 Y142.104 E11.82435
G1 X39.073 Y141.177 E11.85553
G1 X39.013 Y140.288 E11.88517
G1 X39.004 Y139.955 E11.89625
G1 X39 Y139.658 E11.90613
G1 X39.001 Y80.525 E13.8729
G1 X39.01 Y79.86 E13.89502
G1 X39.063 Y78.924 E13.9262
G1 X39.195 Y77.995 E13.95741
G1 X39.406 Y77.081 E13.98861
G1 X39.694 Y76.189 E14.01979
G1 X40.057 Y75.324 E14.05099
G1 X40.492 Y74.493 E14.08218
G1 X40.996 Y73.703 E14.11335
G1 X41.566 Y72.958 E14.14455
G1 X42.198 Y72.264 E14.17577
G1 X42.886 Y71.627 E14.20695
G1 X43.626 Y71.051 E14.23814
G1 X44.412 Y70.539 E14.26934
G0 F6000 X44.791 Y70.782
G1 F1200 X45.611 Y70.364 E14.29996
G1 X46.465 Y70.019 E14.33059
G1 X47.345 Y69.749 E14.36121
G1 X48.245 Y69.557 E14.39181
G1 X49.159 Y69.443 E14.42245
G1 X49.712 Y69.413 E14.44087
G1 X50.033 Y69.404 E14.45155
G1 X50.33 Y69.4 E14.46143
G1 X169.293 Y69.4 E18.41815
G1 X170.143 Y69.411 E18.44643
G1 X171.062 Y69.464 E18.47704
G1 X171.973 Y69.597 E18.50767
G1 X172.869 Y69.808 E18.53828
G1 X173.743 Y70.096 E18.56889
G1 X174.59 Y70.459 E18.59954
G1 X175.401 Y70.894 E18.63015
G1 X176.171 Y71.398 E18.66076
G1 X176.895 Y71.967 E18.69138
G1 X177.567 Y72.597 E18.72202
G1 X178.182 Y73.282 E18.75264
G1 X178.735 Y74.018 E18.78326
G1 X179.222 Y74.799 E18.81387
G1 X179.639 Y75.62 E18.8445
G1 X179.984 Y76.474 E18.87513
G1 X180.253 Y77.354 E18.90574
G1 X180.445 Y78.255 E18.93638
G1 X180.558 Y79.168 E18.96698
G1 X180.587 Y79.712 E18.9851
G1 X180.596 Y80.032 E18.99574
G1 X180.6 Y80.33 E19.00566
G1 X180.599 Y139.395 E20.97017
G1 X180.59 Y140.122 E20.99435
G1 X180.539 Y141.041 E21.02496
G1 X180.408 Y141.953 E21.0556
G1 X180.198 Y142.849 E21.08621
G1 X179.912 Y143.724 E21.11683
G1 X179.551 Y144.571 E21.14745
G1 X179.117 Y145.383 E21.17808
G1 X178.615 Y146.155 E21.20871
G1 X178.047 Y146.88 E21.23934
G1 X177.419 Y147.553 E21.26995
G1 X176.735 Y148.169 E21.30057
G1 X176 Y148.723 E21.33118
G1 X175.22 Y149.212 E21.3618
G1 X174.4 Y149.631 E21.39243
G1 X173.547 Y149.977 E21.42305
G1 X172.667 Y150.248 E21.45367
G1 X171.767 Y150.441 E21.48429
G1 X170.853 Y150.556 E21.51493
G1 X170.288 Y150.587 E21.53375
G1 X169.967 Y150.596 E21.54443
G1 X169.67 Y150.6 E21.55431
G1 X50.57 Y150.599 E25.51559
G1 X49.872 Y150.59 E25.5388
G1 X48.953 Y150.538 E25.56942
G1 X48.042 Y150.407 E25.60003
G1 X47.146 Y150.197 E25.63064
G1 X46.271 Y149.91 E25.66127
G1 X45.424 Y149.548 E25.6919
G1 X44.612 Y149.114 E25.72253
G1 X43.841 Y148.612 E25.75313
G1 X43.116 Y148.044 E25.78376
G1 X42.443 Y147.415 E25.8144
G1 X41.828 Y146.731 E25.84499
G1 X41.274 Y145.996 E25.87561
G1 X40.786 Y145.215 E25.90624
G1 X40.367 Y144.395 E25.93686
G1 X40.021 Y143.542 E25.96748
G1 X39.751 Y142.662 E25.99809
G1 X39.558 Y141.761 E26.02874
G1 X39.444 Y140.848 E26.05934
G1 X39.413 Y140.277 E26.07836
G1 X39.404 Y139.944 E26.08944
G1 X39.4 Y139.658 E26.09896
G1 X39.401 Y80.531 E28.06553
G1 X39.41 Y79.866 E28.08765
G1 X39.462 Y78.946 E28.1183
G1 X39.594 Y78.035 E28.14891
G1 X39.805 Y77.139 E28.17953
G1 X40.092 Y76.264 E28.21016
G1 X40.455 Y75.418 E28.24078
G1 X40.889 Y74.606 E28.2714
G1 X41.392 Y73.835 E28.30202
G1 X41.961 Y73.111 E28.33264
G1 X42.589 Y72.439 E28.36324
G1 X43.274 Y71.823 E28.39388
G1 X44.01 Y71.27 E28.4245
G1 X44.791 Y70.782 E28.45513
G0 F6000 X45.169 Y71.031
G1 F1200 X45.982 Y70.638 E28.48516
G1 X46.827 Y70.318 E28.51521
G1 X47.696 Y70.075 E28.54522
G1 X48.584 Y69.909 E28.57527
G1 X49.723 Y69.813 E28.61329
G1 X50.044 Y69.804 E28.62397
G1 X50.33 Y69.8 E28.63348
G1 X169.293 Y69.8 E32.59021
G1 X170.137 Y69.811 E32.61828
G1 X171.039 Y69.864 E32.64833
G1 X171.932 Y69.996 E32.67836
G1 X172.81 Y70.207 E32.70839
G1 X173.666 Y70.495 E32.73843
G1 X174.493 Y70.857 E32.76846
G1 X175.285 Y71.292 E32.79851
G1 X176.036 Y71.794 E32.82856
G1 X176.739 Y72.361 E32.85859
G1 X177.389 Y72.988 E32.88863
G1 X177.981 Y73.67 E32.91867
G1 X178.511 Y74.401 E32.9487
G1 X178.973 Y75.177 E32.97874
G1 X179.366 Y75.99 E33.00877
G1 X179.684 Y76.835 E33.0388
G1 X179.927 Y77.705 E33.06885
G1 X180.092 Y78.593 E33.09889
G1 X180.187 Y79.723 E33.1366
G1 X180.196 Y80.043 E33.14725
G1 X180.2 Y80.33 E33.1568
G1 X180.199 Y139.39 E35.12114
G1 X180.19 Y140.117 E35.14532
G1 X180.139 Y141.019 E35.17537
G1 X180.008 Y141.913 E35.20542
G1 X179.799 Y142.791 E35.23544
G1 X179.513 Y143.648 E35.26549
G1 X179.152 Y144.476 E35.29553
G1 X178.72 Y145.268 E35.32554
G1 X178.219 Y146.02 E35.35559
G1 X177.653 Y146.724 E35.38564
G1 X177.028 Y147.375 E35.41565
G1 X176.347 Y147.969 E35.44571
G1 X175.616 Y148.5 E35.47576
G1 X174.842 Y148.964 E35.50578
G1 X174.029 Y149.358 E35.53582
G1 X173.185 Y149.678 E35.56585
G1 X172.315 Y149.923 E35.59591
G1 X171.428 Y150.089 E35.62592
G1 X170.277 Y150.187 E35.66434
G1 X169.956 Y150.196 E35.67502
G1 X169.67 Y150.2 E35.68454
G1 X50.575 Y150.199 E39.64565
G1 X49.877 Y150.19 E39.66887
G1 X48.976 Y150.139 E39.69888
G1 X48.082 Y150.007 E39.72894
G1 X47.204 Y149.798 E39.75896
G1 X46.347 Y149.511 E39.78902
G1 X45.52 Y149.15 E39.81903
G1 X44.727 Y148.717 E39.84908
G1 X43.976 Y148.216 E39.87911
G1 X43.272 Y147.65 E39.90915
G1 X42.621 Y147.024 E39.93919
G1 X42.028 Y146.343 E39.96923
G1 X41.498 Y145.612 E39.99926
G1 X41.034 Y144.837 E40.0293
G1 X40.64 Y144.024 E40.05935
G1 X40.32 Y143.18 E40.08937
G1 X40.076 Y142.31 E40.11942
G1 X39.91 Y141.422 E40.14947
G1 X39.813 Y140.267 E40.18802
G1 X39.804 Y139.934 E40.1991
G1 X39.8 Y139.658 E40.20828
G1 X39.801 Y80.536 E42.17469
G1 X39.81 Y79.871 E42.19681
G1 X39.862 Y78.969 E42.22686
G1 X39.994 Y78.076 E42.25688
G1 X40.204 Y77.198 E42.28691
G1 X40.491 Y76.341 E42.31697
G1 X40.853 Y75.514 E42.34699
G1 X41.286 Y74.722 E42.37702
G1 X41.788 Y73.971 E42.40706
G1 X42.355 Y73.267 E42.43713
G1 X42.981 Y72.617 E42.46714
G1 X43.662 Y72.024 E42.49717
G1 X44.394 Y71.494 E42.52723
G1 X45.169 Y71.031 E42.55726
G1 F1500 E36.05726
;MESH:FrontPanel.stl
G0 F6000 X67.906 Y83.104
G0 X78.336 Y84.02
G0 X78.41 Y88.682
G0 X82.589 Y90.901
G0 X82.664 Y91.98
G0 X84.022 Y93.336
G0 X87.28 Y93.392
G0 X97.668 Y98.909
G0 X96.209 Y98.988
G0 X96.734 Y107.581
G0 X97.107 Y108.376
G0 X97.759 Y108.983
G0 X98.576 Y109.302
G0 X107.031 Y109.6
;TYPE:WALL-INNER
G1 F1500 E42.55726
G1 F1200 X107.341 Y109.577 E42.5676
G1 X107.662 Y109.516 E42.57847
G1 X107.971 Y109.412 E42.58931
G1 X108.267 Y109.272 E42.6002
G1 X108.542 Y109.095 E42.61108
G1 X108.781 Y108.896 E42.62142
G1 X109.004 Y108.659 E42.63224
G1 X109.196 Y108.394 E42.64313
G1 X109.354 Y108.107 E42.65403
G1 X109.473 Y107.803 E42.66488
G1 X109.556 Y107.489 E42.67569
G1 X109.595 Y107.17 E42.68638
G1 X109.6 Y107.009 E42.69173
G1 X109.6 Y98.985 E42.95861
G1 X109.581 Y98.674 E42.96898
G1 X109.519 Y98.353 E42.97985
G1 X109.419 Y98.044 E42.99065
G1 X109.279 Y97.747 E43.00157
G1 X109.104 Y97.47 E43.01247
G1 X108.894 Y97.219 E43.02335
G1 X108.646 Y96.987 E43.03465
G1 X108.38 Y96.796 E43.04554
G1 X108.093 Y96.639 E43.05642
G1 X107.788 Y96.522 E43.06729
G1 X107.472 Y96.442 E43.07813
G1 X107.156 Y96.405 E43.08871
G1 X107.011 Y96.4 E43.09354
G1 X98.982 Y96.4 E43.36058
G1 X98.659 Y96.423 E43.37135
G1 X98.339 Y96.484 E43.38219
G1 X98.029 Y96.587 E43.39305
G1 X97.732 Y96.729 E43.404
G1 X97.458 Y96.905 E43.41483
G1 X97.219 Y97.104 E43.42518
G1 X96.996 Y97.341 E43.436
G1 X96.804 Y97.606 E43.44688
G1 X96.646 Y97.893 E43.45778
G1 X96.527 Y98.197 E43.46864
G1 X96.444 Y98.511 E43.47944
G1 X96.405 Y98.83 E43.49013
G1 X96.4 Y98.991 E43.49549
G1 X96.4 Y107.015 E43.76237
G1 X96.419 Y107.326 E43.77273
G1 X96.481 Y107.647 E43.7836
G1 X96.581 Y107.956 E43.79441
G1 X96.721 Y108.253 E43.80533
G1 X96.896 Y108.53 E43.81622
G1 X97.106 Y108.781 E43.82711
G1 X97.354 Y109.013 E43.8384
G1 X97.62 Y109.204 E43.8493
G1 X97.909 Y109.361 E43.86024
G1 X98.211 Y109.477 E43.871
G1 X98.528 Y109.558 E43.88188
G1 X98.844 Y109.595 E43.89246
G1 X98.989 Y109.6 E43.89729
G1 X107.031 Y109.6 E44.16476
G0 F6000 X107.016 Y109.2
;TYPE:WALL-OUTER
G1 F1200 X107.289 Y109.18 E44.17387
G1 X107.56 Y109.128 E44.18305
G1 X107.821 Y109.04 E44.19221
G1 X108.073 Y108.921 E44.20148
G1 X108.305 Y108.772 E44.21065
G1 X108.506 Y108.604 E44.21936
G1 X108.695 Y108.403 E44.22854
G1 X108.858 Y108.179 E44.23775
G1 X108.991 Y107.937 E44.24693
G1 X109.092 Y107.679 E44.25615
G1 X109.162 Y107.413 E44.2653
G1 X109.196 Y107.139 E44.27448
G1 X109.2 Y107.003 E44.27901
G1 X109.2 Y98.997 E44.54529
G1 X109.183 Y98.724 E44.55438
G1 X109.131 Y98.453 E44.56356
G1 X109.046 Y98.191 E44.57272
G1 X108.928 Y97.94 E44.58195
G1 X108.78 Y97.706 E44.59116
G1 X108.603 Y97.494 E44.60034
G1 X108.392 Y97.297 E44.60994
G1 X108.167 Y97.135 E44.61917
G1 X107.925 Y97.003 E44.62833
G1 X107.667 Y96.904 E44.63753
G1 X107.399 Y96.836 E44.64672
G1 X107.126 Y96.804 E44.65586
G1 X107.004 Y96.8 E44.65992
G1 X98.996 Y96.8 E44.92627
G1 X98.711 Y96.82 E44.93577
G1 X98.44 Y96.872 E44.94495
G1 X98.179 Y96.959 E44.9541
G1 X97.927 Y97.079 E44.96339
G1 X97.695 Y97.228 E44.97256
G1 X97.494 Y97.396 E44.98127
G1 X97.305 Y97.597 E44.99045
G1 X97.142 Y97.821 E44.99966
G1 X97.009 Y98.063 E45.00884
G1 X96.908 Y98.321 E45.01806
G1 X96.838 Y98.587 E45.02721
G1 X96.804 Y98.861 E45.03639
G1 X96.8 Y98.997 E45.04092
G1 X96.8 Y107.003 E45.3072
G1 X96.817 Y107.276 E45.31629
G1 X96.869 Y107.547 E45.32547
G1 X96.954 Y107.809 E45.33463
G1 X97.072 Y108.06 E45.34386
G1 X97.22 Y108.294 E45.35307
G1 X97.397 Y108.506 E45.36225
G1 X97.608 Y108.703 E45.37185
G1 X97.833 Y108.865 E45.38108
G1 X98.076 Y108.997 E45.39027
G1 X98.333 Y109.095 E45.39942
G1 X98.601 Y109.164 E45.40863
G1 X98.874 Y109.196 E45.41777
G1 X98.996 Y109.2 E45.42183
G1 X107.016 Y109.2 E45.68857
G0 F6000 X107.032 Y109.639
G1 F1500 E39.18857
G0 F6000 X108.36 Y109.439
G0 X107.789 Y108.078
G0 X112.879 Y107.726
G0 X111.742 Y108.643
G0 X113.844 Y109.595
;TYPE:WALL-INNER
G1 F1500 E45.68857
G1 F1200 X113.989 Y109.6 E45.6934
G1 X122.031 Y109.6 E45.96088
G1 X122.341 Y109.577 E45.97122
G1 X122.662 Y109.516 E45.98208
G1 X122.971 Y109.412 E45.99293
G1 X123.267 Y109.272 E46.00382
G1 X123.5 Y109.122 E46.01304
G1 X123.542 Y109.095 E46.0147
G1 X123.701 Y108.963 E46.02157
G1 X123.781 Y108.896 E46.02504
G1 X123.974 Y108.691 E46.0344
G1 X124.004 Y108.659 E46.03586
G1 X124.106 Y108.518 E46.04165
G1 X124.197 Y108.394 E46.04677
G1 X124.354 Y108.106 E46.05768
G1 X124.473 Y107.805 E46.06844
G1 X124.556 Y107.489 E46.07931
G1 X124.595 Y107.17 E46.09
G1 X124.6 Y107.009 E46.09536
G1 X124.6 Y98.985 E46.36223
G1 X124.581 Y98.674 E46.3726
G1 X124.519 Y98.353 E46.38347
G1 X124.418 Y98.044 E46.39428
G1 X124.28 Y97.748 E46.40515
G1 X124.104 Y97.47 E46.41609
G1 X123.894 Y97.219 E46.42698
G1 X123.646 Y96.987 E46.43827
G1 X123.38 Y96.796 E46.44916
G1 X123.093 Y96.639 E46.46004
G1 X122.788 Y96.522 E46.47091
G1 X122.472 Y96.442 E46.48175
G1 X122.156 Y96.405 E46.49233
G1 X122.011 Y96.4 E46.49716
G1 X113.982 Y96.4 E46.7642
G1 X113.659 Y96.423 E46.77497
G1 X113.339 Y96.484 E46.78581
G1 X113.029 Y96.587 E46.79667
G1 X112.732 Y96.729 E46.80762
G1 X112.458 Y96.905 E46.81845
G1 X112.219 Y97.104 E46.8288
G1 X111.996 Y97.341 E46.83962
G1 X111.804 Y97.606 E46.8505
G1 X111.646 Y97.893 E46.8614
G1 X111.527 Y98.197 E46.87226
G1 X111.444 Y98.511 E46.88306
G1 X111.405 Y98.83 E46.89375
G1 X111.4 Y98.991 E46.89911
G1 X111.4 Y107.015 E47.16599
G1 X111.419 Y107.326 E47.17635
G1 X111.481 Y107.647 E47.18722
G1 X111.581 Y107.956 E47.19803
G1 X111.721 Y108.253 E47.20895
G1 X111.896 Y108.53 E47.21985
G1 X112.106 Y108.781 E47.23073
G1 X112.354 Y109.013 E47.24203
G1 X112.62 Y109.204 E47.25292
G1 X112.909 Y109.361 E47.26386
G1 X113.211 Y109.477 E47.27462
G1 X113.528 Y109.558 E47.2855
G1 X113.844 Y109.595 E47.29608
G0 F6000 X113.874 Y109.196
;TYPE:WALL-OUTER
G1 F1200 X113.996 Y109.2 E47.30014
G1 X122.016 Y109.2 E47.56689
G1 X122.289 Y109.18 E47.57599
G1 X122.56 Y109.128 E47.58517
G1 X122.821 Y109.04 E47.59433
G1 X123.073 Y108.921 E47.6036
G1 X123.305 Y108.772 E47.61277
G1 X123.506 Y108.604 E47.62148
G1 X123.695 Y108.403 E47.63066
G1 X123.858 Y108.179 E47.63987
G1 X123.991 Y107.936 E47.64909
G1 X124.092 Y107.68 E47.65824
G1 X124.162 Y107.413 E47.66742
G1 X124.196 Y107.139 E47.6766
G1 X124.2 Y107.003 E47.68113
G1 X124.2 Y98.997 E47.94741
G1 X124.183 Y98.724 E47.95651
G1 X124.131 Y98.453 E47.96569
G1 X124.045 Y98.191 E47.97486
G1 X123.928 Y97.94 E47.98407
G1 X123.78 Y97.706 E47.99328
G1 X123.603 Y97.494 E48.00246
G1 X123.392 Y97.297 E48.01206
G1 X123.167 Y97.135 E48.02128
G1 X122.925 Y97.003 E48.03045
G1 X122.667 Y96.904 E48.03964
G1 X122.399 Y96.836 E48.04884
G1 X122.126 Y96.804 E48.05798
G1 X122.004 Y96.8 E48.06204
G1 X113.996 Y96.8 E48.32839
G1 X113.711 Y96.82 E48.33789
G1 X113.44 Y96.872 E48.34707
G1 X113.179 Y96.959 E48.35622
G1 X112.927 Y97.079 E48.3655
G1 X112.695 Y97.228 E48.37467
G1 X112.494 Y97.396 E48.38339
G1 X112.305 Y97.597 E48.39256
G1 X112.142 Y97.821 E48.40178
G1 X112.009 Y98.063 E48.41096
