;FLAVOR:Marlin
;TIME:1509
;Filament used: 1.23935m
;Layer height: 0.2
;MINX:66.8
;MINY:66.8
;MINZ:0.3
;MAXX:133.2
;MAXY:133.2
;MAXZ:2.9
;Generated with Cura_SteamEngine 4.9.1
M140 S70
M105
M190 S70
M104 S230
M105
M109 S230
M82 ;absolute extrusion mode
G21 ;metric values
 G90 ;absolute positioning
 M82 ;set extruder to absolute mode
 M107 ;start with the fan off
 G28 X0 Y0 ;move X/Y to min endstops
 G28 Z0 ;move Z to min endstops
 G1 Z15.0 F120 ;move the platform down 15mm
 G92 E0 ;zero the extruded length
 G1 F200 E6 ;extrude 6 mm of feed stock
 G92 E0 ;zero the extruded length again
 G1 F120 
 ;Put printing message on LCD screen
 M117 Printing...
G92 E0
G92 E0
G1 F1500 E-1.5
;LAYER_COUNT:14
;LAYER:0
M107
M204 S5000
M205 X30 Y30
G0 F3600 X67.789 Y67.704 Z0.3
M204 S1000
M205 X10 Y10
;TYPE:SKIRT
G1 F1500 E0
G1 F1800 X68.18 Y67.383 E0.02524
G1 X68.617 Y67.128 E0.05048
G1 X69.088 Y66.944 E0.07571
G1 X69.582 Y66.838 E0.10092
G1 X70.24 Y66.801 E0.1338
G1 X129.339 Y66.8 E3.08226
G1 X130.037 Y66.81 E3.11708
G1 X130.54 Y66.857 E3.14229
G1 X131.03 Y66.983 E3.16753
G1 X131.494 Y67.185 E3.19278
G1 X131.92 Y67.457 E3.21799
G1 X132.298 Y67.792 E3.24319
G1 X132.618 Y68.183 E3.2684
G1 X132.873 Y68.62 E3.29364
G1 X133.056 Y69.091 E3.31885
G1 X133.163 Y69.585 E3.34407
G1 X133.199 Y70.24 E3.3768
G1 X133.2 Y129.304 E6.32351
G1 X133.191 Y130.031 E6.35978
G1 X133.145 Y130.534 E6.38498
G1 X133.02 Y131.024 E6.41021
G1 X132.819 Y131.488 E6.43544
G1 X132.548 Y131.915 E6.46067
G1 X132.213 Y132.294 E6.48591
G1 X131.823 Y132.615 E6.51111
G1 X131.387 Y132.871 E6.53633
G1 X130.916 Y133.054 E6.56154
G1 X130.422 Y133.162 E6.58677
G1 X129.76 Y133.199 E6.61985
G1 X70.666 Y133.2 E9.56806
G1 X69.968 Y133.191 E9.60289
G1 X69.464 Y133.144 E9.62814
G1 X68.974 Y133.019 E9.65337
G1 X68.51 Y132.818 E9.6786
G1 X68.084 Y132.547 E9.70379
G1 X67.705 Y132.212 E9.72902
G1 X67.384 Y131.821 E9.75426
G1 X67.129 Y131.385 E9.77946
G1 X66.945 Y130.914 E9.80469
G1 X66.838 Y130.42 E9.8299
G1 X66.801 Y129.744 E9.86368
G1 X66.8 Y70.631 E12.81284
G1 X66.809 Y69.966 E12.84602
G1 X66.856 Y69.462 E12.87127
G1 X66.982 Y68.973 E12.89647
G1 X67.183 Y68.509 E12.9217
G1 X67.454 Y68.082 E12.94693
G1 X67.789 Y67.704 E12.97213
M204 S5000
M205 X30 Y30
G1 F1500 E11.47213
;MESH:FrontPanel4x4.stl
G0 F3600 X70.614 Y69.335
G0 X70.614 Y70.614
G0 X70.861 Y81.53
G0 X71.184 Y82.773
G0 X72.093 Y83.737
G0 X73.49 Y84.199
G0 X73.491 Y84.1
M204 S1000
M205 X10 Y10
;TYPE:WALL-INNER
G1 F1500 E12.97213
G1 F1800 X81.539 Y84.1 E13.37364
G1 X82.159 Y84.019 E13.40484
G1 X82.765 Y83.775 E13.43743
G1 X83.282 Y83.398 E13.46935
G1 X83.699 Y82.895 E13.50195
G1 X83.975 Y82.303 E13.53454
G1 X84.095 Y81.683 E13.56604
G1 X84.1 Y81.509 E13.57473
G1 X84.1 Y73.472 E13.97569
G1 X84.021 Y72.853 E14.00683
G1 X83.781 Y72.246 E14.03939
G1 X83.397 Y71.718 E14.07196
G1 X82.886 Y71.296 E14.10503
G1 X82.293 Y71.021 E14.13764
G1 X82.175 Y70.999 E14.14363
G1 X81.672 Y70.905 E14.16915
G1 X81.509 Y70.9 E14.17729
G1 X73.461 Y70.9 E14.57881
G1 X72.841 Y70.981 E14.61
G1 X72.796 Y70.999 E14.61242
G1 X72.235 Y71.225 E14.64259
G1 X71.718 Y71.602 E14.67452
G1 X71.301 Y72.105 E14.70711
G1 X71.025 Y72.697 E14.7397
G1 X70.999 Y72.831 E14.74651
G1 X70.905 Y73.317 E14.77121
G1 X70.9 Y73.491 E14.77989
G1 X70.9 Y81.528 E15.18086
G1 X70.979 Y82.147 E15.21199
G1 X70.999 Y82.198 E15.21472
G1 X71.219 Y82.754 E15.24456
G1 X71.603 Y83.282 E15.27713
G1 X72.114 Y83.704 E15.31019
G1 X72.707 Y83.979 E15.3428
G1 X73.328 Y84.095 E15.37432
G1 X73.491 Y84.1 E15.38246
M204 S5000
M205 X30 Y30
G0 F3600 X73.49 Y84.199
G0 X71.268 Y87.084
G0 X70.861 Y88.491
G0 X70.861 Y96.53
G0 X71.184 Y97.773
G0 X72.093 Y98.737
G0 X73.49 Y99.199
G0 X73.491 Y99.1
M204 S1000
M205 X10 Y10
G1 F1800 X81.539 Y99.1 E15.78397
G1 X82.159 Y99.019 E15.81517
G1 X82.765 Y98.775 E15.84776
G1 X83.282 Y98.398 E15.87968
G1 X83.699 Y97.895 E15.91228
G1 X83.975 Y97.303 E15.94487
G1 X84.095 Y96.683 E15.97637
G1 X84.1 Y96.509 E15.98506
G1 X84.1 Y88.472 E16.38602
G1 X84.021 Y87.853 E16.41716
G1 X83.781 Y87.246 E16.44972
G1 X83.397 Y86.718 E16.48229
G1 X82.886 Y86.296 E16.51536
G1 X82.293 Y86.021 E16.54797
G1 X81.672 Y85.905 E16.57949
G1 X81.509 Y85.9 E16.58762
G1 X73.461 Y85.9 E16.98914
G1 X72.841 Y85.981 E17.02033
G1 X72.235 Y86.225 E17.05292
G1 X71.718 Y86.602 E17.08485
G1 X71.301 Y87.105 E17.11744
G1 X71.025 Y87.697 E17.15003
G1 X70.999 Y87.831 E17.15684
G1 X70.905 Y88.317 E17.18154
G1 X70.9 Y88.491 E17.19022
G1 X70.9 Y96.528 E17.59119
G1 X70.979 Y97.147 E17.62232
G1 X70.999 Y97.198 E17.62506
G1 X71.219 Y97.754 E17.65489
G1 X71.603 Y98.282 E17.68746
G1 X72.114 Y98.704 E17.72052
G1 X72.707 Y98.979 E17.75313
G1 X73.328 Y99.095 E17.78465
G1 X73.491 Y99.1 E17.79279
M204 S5000
M205 X30 Y30
G0 F3600 X73.49 Y99.199
G0 X85.003 Y101.455
G0 X85.003 Y101.355
M204 S1000
M205 X10 Y10
G1 F1800 X85.43 Y101.286 E17.81437
G1 X85.867 Y101.044 E17.83929
G1 X86.151 Y100.717 E17.8609
G1 X86.333 Y100.257 E17.88558
G1 X86.333 Y99.741 E17.91132
G1 X86.147 Y99.275 E17.93635
G1 X85.796 Y98.903 E17.96187
G1 X85.417 Y98.711 E17.98307
G1 X84.997 Y98.645 E18.00428
G1 X84.57 Y98.714 E18.02586
G1 X84.133 Y98.956 E18.05078
G1 X83.849 Y99.283 E18.07239
G1 X83.667 Y99.743 E18.09707
G1 X83.667 Y100.259 E18.12281
G1 X83.853 Y100.725 E18.14784
G1 X84.204 Y101.097 E18.17336
G1 X84.583 Y101.289 E18.19455
G1 X85.003 Y101.355 E18.21577
M204 S5000
M205 X30 Y30
G0 F3600 X85.003 Y101.455
G0 X88.49 Y99.199
G0 X88.491 Y99.1
M204 S1000
M205 X10 Y10
G1 F1800 X96.539 Y99.1 E18.61728
G1 X97.159 Y99.019 E18.64848
G1 X97.763 Y98.775 E18.68098
G1 X98.282 Y98.398 E18.71298
G1 X98.699 Y97.895 E18.74558
G1 X98.975 Y97.303 E18.77816
G1 X99.095 Y96.683 E18.80967
G1 X99.1 Y96.509 E18.81835
G1 X99.1 Y88.472 E19.21932
G1 X99.021 Y87.853 E19.25045
G1 X98.781 Y87.246 E19.28302
G1 X98.397 Y86.718 E19.31559
G1 X97.886 Y86.296 E19.34865
G1 X97.293 Y86.021 E19.38127
G1 X96.672 Y85.905 E19.41278
G1 X96.509 Y85.9 E19.42092
G1 X88.461 Y85.9 E19.82244
G1 X87.841 Y85.981 E19.85363
G1 X87.237 Y86.225 E19.88613
G1 X86.718 Y86.602 E19.91813
G1 X86.301 Y87.105 E19.95073
G1 X86.025 Y87.697 E19.98332
G1 X85.905 Y88.317 E20.01482
G1 X85.9 Y88.491 E20.02351
G1 X85.9 Y96.528 E20.42448
G1 X85.979 Y97.147 E20.45561
G1 X86.219 Y97.754 E20.48817
G1 X86.603 Y98.282 E20.52074
G1 X87.114 Y98.704 E20.55381
G1 X87.707 Y98.979 E20.58642
G1 X88.328 Y99.095 E20.61794
G1 X88.491 Y99.1 E20.62607
M204 S5000
M205 X30 Y30
G0 F3600 X88.49 Y99.199
G0 X86.268 Y102.084
G0 X85.861 Y103.491
G0 X85.861 Y111.53
G0 X86.184 Y112.772
G0 X87.093 Y113.737
G0 X88.49 Y114.199
G0 X88.491 Y114.1
M204 S1000
M205 X10 Y10
G1 F1800 X96.539 Y114.1 E21.02759
G1 X97.159 Y114.019 E21.05878
G1 X97.763 Y113.775 E21.09128
G1 X98.282 Y113.398 E21.12329
G1 X98.699 Y112.895 E21.15588
G1 X98.975 Y112.303 E21.18847
G1 X99.095 Y111.683 E21.21998
G1 X99.1 Y111.509 E21.22866
G1 X99.1 Y103.472 E21.62963
G1 X99.021 Y102.853 E21.66076
G1 X98.781 Y102.246 E21.69333
G1 X98.397 Y101.718 E21.7259
G1 X97.886 Y101.296 E21.75896
G1 X97.293 Y101.022 E21.79155
G1 X96.673 Y100.905 E21.82303
G1 X96.509 Y100.9 E21.83122
G1 X88.461 Y100.9 E22.23273
G1 X87.841 Y100.981 E22.26393
G1 X87.237 Y101.225 E22.29643
G1 X86.718 Y101.602 E22.32843
G1 X86.301 Y102.105 E22.36103
G1 X86.025 Y102.697 E22.39361
G1 X85.905 Y103.317 E22.42512
G1 X85.9 Y103.491 E22.4338
G1 X85.9 Y111.528 E22.83477
G1 X85.979 Y112.147 E22.8659
G1 X86.219 Y112.753 E22.89842
G1 X86.603 Y113.282 E22.93103
G1 X87.114 Y113.704 E22.9641
G1 X87.707 Y113.979 E22.99671
G1 X88.328 Y114.095 E23.02823
G1 X88.491 Y114.1 E23.03636
M204 S5000
M205 X30 Y30
G0 F3600 X88.49 Y114.199
G0 X86.268 Y117.084
G0 X85.861 Y118.491
G0 X85.861 Y126.53
G0 X86.184 Y127.772
G0 X87.093 Y128.737
G0 X88.49 Y129.199
G0 X88.491 Y129.1
M204 S1000
M205 X10 Y10
G1 F1800 X96.539 Y129.1 E23.43788
G1 X97.159 Y129.019 E23.46907
G1 X97.203 Y129.002 E23.47143
G1 X97.763 Y128.775 E23.50157
G1 X98.282 Y128.398 E23.53358
G1 X98.699 Y127.895 E23.56617
G1 X98.975 Y127.303 E23.59876
G1 X99.095 Y126.683 E23.63027
G1 X99.1 Y126.509 E23.63895
G1 X99.1 Y118.472 E24.03992
G1 X99.021 Y117.853 E24.07105
G1 X98.781 Y117.246 E24.10362
G1 X98.397 Y116.718 E24.13619
G1 X97.886 Y116.296 E24.16925
G1 X97.293 Y116.021 E24.20186
G1 X96.672 Y115.905 E24.23338
G1 X96.509 Y115.9 E24.24152
G1 X88.461 Y115.9 E24.64303
G1 X87.841 Y115.981 E24.67423
G1 X87.237 Y116.225 E24.70673
G1 X86.718 Y116.602 E24.73873
G1 X86.301 Y117.105 E24.77133
G1 X86.025 Y117.697 E24.80391
G1 X85.905 Y118.317 E24.83542
G1 X85.9 Y118.491 E24.84411
G1 X85.9 Y126.528 E25.24507
G1 X85.979 Y127.147 E25.27621
G1 X86.219 Y127.753 E25.30872
G1 X86.603 Y128.282 E25.34134
G1 X87.114 Y128.704 E25.3744
G1 X87.707 Y128.979 E25.40701
G1 X87.825 Y129.001 E25.413
G1 X88.328 Y129.095 E25.43853
G1 X88.491 Y129.1 E25.44666
M204 S5000
M205 X30 Y30
G0 F3600 X88.49 Y129.199
G0 X73.49 Y129.199
G0 X73.491 Y129.1
M204 S1000
M205 X10 Y10
G1 F1800 X81.539 Y129.1 E25.84818
G1 X82.159 Y129.019 E25.87938
G1 X82.204 Y129.001 E25.88179
G1 X82.765 Y128.775 E25.91197
G1 X83.282 Y128.398 E25.94389
G1 X83.699 Y127.895 E25.97649
G1 X83.975 Y127.303 E26.00907
G1 X84.095 Y126.683 E26.04058
G1 X84.1 Y126.509 E26.04926
G1 X84.1 Y118.472 E26.45023
G1 X84.021 Y117.853 E26.48136
G1 X83.781 Y117.246 E26.51393
G1 X83.397 Y116.718 E26.5465
G1 X82.886 Y116.296 E26.57956
G1 X82.293 Y116.021 E26.61218
G1 X81.672 Y115.905 E26.64369
G1 X81.509 Y115.9 E26.65183
G1 X73.461 Y115.9 E27.05335
G1 X72.841 Y115.981 E27.08454
G1 X72.235 Y116.225 E27.11713
G1 X71.718 Y116.602 E27.14906
G1 X71.301 Y117.105 E27.18165
G1 X71.025 Y117.697 E27.21424
G1 X70.999 Y117.831 E27.22105
G1 X70.905 Y118.317 E27.24575
G1 X70.9 Y118.491 E27.25443
G1 X70.9 Y126.528 E27.6554
G1 X70.979 Y127.147 E27.68653
G1 X70.999 Y127.198 E27.68926
G1 X71.219 Y127.753 E27.71905
G1 X71.603 Y128.282 E27.75166
G1 X72.114 Y128.704 E27.78472
G1 X72.707 Y128.979 E27.81734
G1 X72.825 Y129.001 E27.82332
G1 X73.328 Y129.095 E27.84885
G1 X73.491 Y129.1 E27.85699
M204 S5000
M205 X30 Y30
G0 F3600 X72.816 Y129.4
M204 S1000
M205 X10 Y10
G1 F1800 X70.6 Y129.4 E27.96755
G1 X70.6 Y127.202 E28.0772
G1 X70.6 Y127.147 E28.07988
G1 X70.6 Y126.528 E28.10608
G1 X70.6 Y118.491 E28.40681
G1 X70.6 Y118.317 E28.41337
G1 X70.6 Y117.822 E28.43515
G1 X70.6 Y112.202 E28.71553
G1 X70.6 Y112.147 E28.71828
G1 X70.6 Y111.528 E28.74916
G1 X70.6 Y103.491 E29.15013
G1 X70.6 Y103.317 E29.15881
G1 X70.6 Y102.822 E29.1835
G1 X70.6 Y97.202 E29.46389
G1 X70.6 Y97.147 E29.46656
G1 X70.6 Y96.528 E29.49276
G1 X70.6 Y88.491 E29.79349
G1 X70.6 Y88.317 E29.80005
G1 X70.6 Y87.822 E29.82183
G1 X70.6 Y82.202 E30.10222
G1 X70.6 Y82.147 E30.10489
G1 X70.6 Y81.528 E30.13109
G1 X70.6 Y73.491 E30.43182
G1 X70.6 Y73.317 E30.43838
G1 X70.6 Y72.822 E30.46016
G1 X70.6 Y70.6 E30.57102
G1 X72.792 Y70.6 E30.68038
G1 X72.841 Y70.6 E30.68277
G1 X73.461 Y70.6 E30.70909
G1 X81.509 Y70.6 E31.01023
G1 X81.672 Y70.6 E31.01638
G1 X82.184 Y70.6 E31.0389
G1 X87.793 Y70.6 E31.31874
G1 X87.841 Y70.6 E31.32113
G1 X88.461 Y70.6 E31.35206
G1 X96.509 Y70.6 E31.75358
G1 X96.672 Y70.6 E31.76171
G1 X97.184 Y70.6 E31.78725
G1 X102.792 Y70.6 E32.06704
G1 X102.841 Y70.6 E32.06948
G1 X103.461 Y70.6 E32.10042
G1 X111.509 Y70.6 E32.50193
G1 X111.672 Y70.6 E32.51006
G1 X112.184 Y70.6 E32.53561
G1 X117.792 Y70.6 E32.81539
G1 X117.841 Y70.6 E32.81784
G1 X118.461 Y70.6 E32.84877
G1 X126.509 Y70.6 E33.25028
G1 X126.672 Y70.6 E33.25842
G1 X127.184 Y70.6 E33.28396
G1 X129.4 Y70.6 E33.39452
G1 X129.4 Y72.798 E33.50418
G1 X129.4 Y72.853 E33.50692
G1 X129.4 Y73.472 E33.5378
G1 X129.4 Y81.509 E33.93877
G1 X129.4 Y81.683 E33.94745
G1 X129.4 Y82.178 E33.97215
G1 X129.4 Y87.798 E34.25253
G1 X129.4 Y87.853 E34.25527
G1 X129.4 Y88.472 E34.28615
G1 X129.4 Y96.509 E34.68712
G1 X129.4 Y96.683 E34.6958
G1 X129.4 Y97.178 E34.7205
G1 X129.4 Y102.798 E35.00088
G1 X129.4 Y102.853 E35.00363
G1 X129.4 Y103.472 E35.03451
G1 X129.4 Y111.509 E35.43548
G1 X129.4 Y111.683 E35.44416
G1 X129.4 Y112.178 E35.46885
G1 X129.4 Y117.798 E35.74923
G1 X129.4 Y117.853 E35.75198
G1 X129.4 Y118.472 E35.78286
G1 X129.4 Y126.509 E36.18383
G1 X129.4 Y126.683 E36.19251
G1 X129.4 Y127.178 E36.2172
G1 X129.4 Y129.4 E36.32806
G1 X127.208 Y129.4 E36.43742
G1 X127.159 Y129.4 E36.43986
G1 X126.539 Y129.4 E36.4708
G1 X118.491 Y129.4 E36.87231
G1 X118.328 Y129.4 E36.88045
G1 X117.816 Y129.4 E36.90599
G1 X112.208 Y129.4 E37.18577
G1 X112.159 Y129.4 E37.18822
G1 X111.539 Y129.4 E37.21915
G1 X103.491 Y129.4 E37.62067
G1 X103.328 Y129.4 E37.6288
G1 X102.816 Y129.4 E37.65434
G1 X97.207 Y129.4 E37.93418
G1 X97.159 Y129.4 E37.93652
G1 X96.539 Y129.4 E37.96284
G1 X88.491 Y129.4 E38.26398
G1 X88.328 Y129.4 E38.27013
G1 X87.816 Y129.4 E38.29265
G1 X82.208 Y129.4 E38.57244
G1 X82.159 Y129.4 E38.57482
G1 X81.539 Y129.4 E38.60115
G1 X73.491 Y129.4 E38.90229
G1 X73.328 Y129.4 E38.90844
G1 X72.816 Y129.4 E38.93096
M204 S5000
M205 X30 Y30
G0 F3600 X72.816 Y129.3
G0 X71.574 Y128.309
G0 X70.941 Y127.156
G0 X70.866 Y118.313
G0 X71.213 Y117.199
G0 X73.49 Y114.199
G0 X73.491 Y114.1
M204 S1000
M205 X10 Y10
G1 F1800 X81.539 Y114.1 E39.33248
G1 X82.159 Y114.019 E39.36367
G1 X82.765 Y113.775 E39.39626
G1 X83.282 Y113.398 E39.42819
G1 X83.699 Y112.895 E39.46078
G1 X83.975 Y112.303 E39.49337
G1 X84.095 Y111.683 E39.52488
G1 X84.1 Y111.509 E39.53356
G1 X84.1 Y103.472 E39.93453
G1 X84.021 Y102.853 E39.96566
G1 X83.781 Y102.246 E39.99823
G1 X83.397 Y101.718 E40.0308
G1 X82.886 Y101.296 E40.06386
G1 X82.293 Y101.022 E40.09645
G1 X81.673 Y100.905 E40.12793
G1 X81.509 Y100.9 E40.13612
G1 X73.461 Y100.9 E40.53763
G1 X72.841 Y100.981 E40.56883
G1 X72.235 Y101.225 E40.60142
G1 X71.718 Y101.602 E40.63334
G1 X71.301 Y102.105 E40.66594
G1 X71.025 Y102.697 E40.69853
G1 X70.999 Y102.831 E40.70534
G1 X70.905 Y103.317 E40.72711
G1 X70.9 Y103.491 E40.73368
G1 X70.9 Y111.528 E41.03441
G1 X70.979 Y112.147 E41.06086
G1 X70.999 Y112.198 E41.06352
G1 X71.219 Y112.753 E41.09331
G1 X71.603 Y113.282 E41.12592
G1 X72.114 Y113.704 E41.15898
G1 X72.707 Y113.979 E41.19159
G1 X73.328 Y114.095 E41.22311
G1 X73.491 Y114.1 E41.23125
M204 S5000
M205 X30 Y30
G0 F3600 X73.49 Y114.199
G0 X103.49 Y114.199
G0 X103.491 Y114.1
M204 S1000
M205 X10 Y10
G1 F1800 X111.539 Y114.1 E41.63276
G1 X112.159 Y114.019 E41.66396
G1 X112.765 Y113.775 E41.69655
G1 X113.282 Y113.398 E41.72847
G1 X113.699 Y112.895 E41.76107
G1 X113.975 Y112.303 E41.79366
G1 X114.095 Y111.683 E41.82516
G1 X114.1 Y111.509 E41.83385
G1 X114.1 Y103.472 E42.23482
G1 X114.021 Y102.853 E42.26595
G1 X113.781 Y102.246 E42.29851
G1 X113.397 Y101.718 E42.33109
G1 X112.886 Y101.296 E42.36415
G1 X112.293 Y101.022 E42.39674
G1 X111.673 Y100.905 E42.42822
G1 X111.509 Y100.9 E42.4364
G1 X103.461 Y100.9 E42.83792
G1 X102.841 Y100.981 E42.86911
G1 X102.235 Y101.225 E42.90171
G1 X101.718 Y101.602 E42.93363
G1 X101.301 Y102.105 E42.96623
G1 X101.025 Y102.697 E42.99881
G1 X100.905 Y103.317 E43.03032
G1 X100.9 Y103.491 E43.039
G1 X100.9 Y111.528 E43.43997
G1 X100.979 Y112.147 E43.4711
G1 X101.219 Y112.753 E43.50362
G1 X101.603 Y113.282 E43.53623
G1 X102.114 Y113.704 E43.5693
G1 X102.707 Y113.979 E43.60191
G1 X103.328 Y114.095 E43.63343
G1 X103.491 Y114.1 E43.64156
M204 S5000
M205 X30 Y30
G0 F3600 X103.49 Y114.199
G0 X101.268 Y117.084
G0 X100.861 Y118.491
G0 X100.861 Y126.53
G0 X101.184 Y127.772
G0 X102.093 Y128.737
G0 X103.49 Y129.199
G0 X103.491 Y129.1
M204 S1000
M205 X10 Y10
G1 F1800 X111.539 Y129.1 E43.9427
G1 X112.159 Y129.019 E43.96928
G1 X112.204 Y129.001 E43.97165
G1 X112.765 Y128.775 E44.00182
G1 X113.282 Y128.398 E44.03374
