;FLAVOR:Marlin
;TIME:3355
;Filament used: 3.15201m
;Layer height: 0.2
;MINX:36.8
;MINY:66.8
;MINZ:0.3
;MAXX:163.2
;MAXY:133.2
;MAXZ:2.9
;Generated with Cura_SteamEngine 4.9.1
M140 S70
M105
M190 S70
M104 S230
M105
M109 S230
M82 ;absolute extrusion mode
G21 ;metric values
 G90 ;absolute positioning
 M82 ;set extruder to absolute mode
 M107 ;start with the fan off
 G28 X0 Y0 ;move X/Y to min endstops
 G28 Z0 ;move Z to min endstops
 G1 Z15.0 F120 ;move the platform down 15mm
 G92 E0 ;zero the extruded length
 G1 F200 E6 ;extrude 6 mm of feed stock
 G92 E0 ;zero the extruded length again
 G1 F120 
 ;Put printing message on LCD screen
 M117 Printing...
G92 E0
G92 E0
G1 F1500 E-1.5
;LAYER_COUNT:14
;LAYER:0
M107
M204 S5000
M205 X30 Y30
G0 F3600 X38.617 Y67.128 Z0.3
M204 S1000
M205 X10 Y10
;TYPE:SKIRT
G1 F1500 E0
G1 F1800 X39.088 Y66.944 E0.02523
G1 X39.582 Y66.838 E0.05043
G1 X40.24 Y66.801 E0.08331
G1 X159.339 Y66.8 E6.02519
G1 X160.037 Y66.81 E6.06001
G1 X160.54 Y66.857 E6.08522
G1 X161.03 Y66.983 E6.11046
G1 X161.494 Y67.185 E6.13571
G1 X161.92 Y67.457 E6.16092
G1 X162.298 Y67.792 E6.18612
G1 X162.618 Y68.183 E6.21133
G1 X162.873 Y68.62 E6.23657
G1 X163.056 Y69.091 E6.26178
G1 X163.163 Y69.585 E6.287
G1 X163.199 Y70.24 E6.31973
G1 X163.2 Y129.304 E9.26644
G1 X163.191 Y130.031 E9.30271
G1 X163.145 Y130.534 E9.32791
G1 X163.02 Y131.024 E9.35314
G1 X162.819 Y131.488 E9.37837
G1 X162.548 Y131.915 E9.4036
G1 X162.213 Y132.294 E9.42884
G1 X161.823 Y132.615 E9.45404
G1 X161.387 Y132.871 E9.47926
G1 X160.916 Y133.054 E9.50447
G1 X160.422 Y133.162 E9.5297
G1 X159.76 Y133.199 E9.56278
G1 X40.666 Y133.2 E15.5044
G1 X39.968 Y133.191 E15.53923
G1 X39.464 Y133.144 E15.56448
G1 X38.974 Y133.019 E15.58971
G1 X38.51 Y132.818 E15.61494
G1 X38.084 Y132.547 E15.64013
G1 X37.705 Y132.212 E15.66536
G1 X37.384 Y131.821 E15.6906
G1 X37.129 Y131.385 E15.7158
G1 X36.945 Y130.914 E15.74103
G1 X36.838 Y130.42 E15.76625
G1 X36.801 Y129.744 E15.80002
G1 X36.8 Y70.631 E18.74918
G1 X36.809 Y69.966 E18.78236
G1 X36.856 Y69.462 E18.80762
G1 X36.982 Y68.973 E18.83281
G1 X37.183 Y68.509 E18.85804
G1 X37.454 Y68.082 E18.88327
G1 X37.789 Y67.704 E18.90847
G1 X38.18 Y67.383 E18.93371
G1 X38.617 Y67.128 E18.95895
M204 S5000
M205 X30 Y30
G1 F1500 E17.45895
;MESH:FrontPanel.stl
G0 F3600 X40.614 Y69.335
G0 X40.614 Y70.614
G0 X41.941 Y81.156
G0 X42.574 Y82.309
G0 X43.579 Y82.963
G0 X44.49 Y83.199
G0 X44.491 Y83.1
M204 S1000
M205 X10 Y10
;TYPE:WALL-INNER
G1 F1500 E18.95895
G1 F1800 X51.539 Y83.1 E19.31058
G1 X52.159 Y83.019 E19.34177
G1 X52.765 Y82.775 E19.37436
G1 X53.282 Y82.398 E19.40629
G1 X53.699 Y81.895 E19.43888
G1 X53.975 Y81.303 E19.47147
G1 X54.095 Y80.683 E19.50298
G1 X54.1 Y80.509 E19.51166
G1 X54.1 Y73.472 E19.86274
G1 X54.021 Y72.853 E19.89387
G1 X53.781 Y72.246 E19.92643
G1 X53.397 Y71.718 E19.95901
G1 X52.886 Y71.296 E19.99207
G1 X52.293 Y71.021 E20.02468
G1 X52.175 Y70.999 E20.03067
G1 X51.672 Y70.905 E20.0562
G1 X51.509 Y70.9 E20.06433
G1 X44.461 Y70.9 E20.41596
G1 X43.841 Y70.981 E20.44716
G1 X43.796 Y70.999 E20.44957
G1 X43.235 Y71.225 E20.47975
G1 X42.718 Y71.602 E20.51167
G1 X42.301 Y72.105 E20.54427
G1 X42.025 Y72.697 E20.57685
G1 X41.905 Y73.317 E20.60836
G1 X41.9 Y73.491 E20.61704
G1 X41.9 Y80.528 E20.96812
G1 X41.979 Y81.147 E20.99925
G1 X42.219 Y81.754 E21.03182
G1 X42.603 Y82.282 E21.06439
G1 X43.114 Y82.704 E21.09745
G1 X43.707 Y82.979 E21.13007
G1 X44.328 Y83.095 E21.16158
G1 X44.491 Y83.1 E21.16972
M204 S5000
M205 X30 Y30
G0 F3600 X44.49 Y83.199
G0 X42.268 Y87.084
G0 X41.861 Y88.491
G0 X41.861 Y95.53
G0 X42.184 Y96.773
G0 X43.093 Y97.737
G0 X44.49 Y98.199
G0 X44.491 Y98.1
M204 S1000
M205 X10 Y10
G1 F1800 X51.539 Y98.1 E21.52135
G1 X52.159 Y98.019 E21.55254
G1 X52.765 Y97.775 E21.58513
G1 X53.282 Y97.398 E21.61706
G1 X53.699 Y96.895 E21.64965
G1 X53.975 Y96.303 E21.68224
G1 X54.095 Y95.683 E21.71375
G1 X54.1 Y95.509 E21.72243
G1 X54.1 Y88.472 E22.07351
G1 X54.021 Y87.853 E22.10464
G1 X53.781 Y87.246 E22.1372
G1 X53.397 Y86.718 E22.16978
G1 X52.886 Y86.296 E22.20284
G1 X52.293 Y86.021 E22.23545
G1 X51.672 Y85.905 E22.26697
G1 X51.509 Y85.9 E22.2751
G1 X44.461 Y85.9 E22.62673
G1 X43.841 Y85.981 E22.65793
G1 X43.235 Y86.225 E22.69052
G1 X42.718 Y86.602 E22.72244
G1 X42.301 Y87.105 E22.75504
G1 X42.025 Y87.697 E22.78762
G1 X41.905 Y88.317 E22.81913
G1 X41.9 Y88.491 E22.82781
G1 X41.9 Y95.528 E23.17889
G1 X41.979 Y96.147 E23.21002
G1 X42.219 Y96.754 E23.24259
G1 X42.603 Y97.282 E23.27516
G1 X43.114 Y97.704 E23.30822
G1 X43.707 Y97.979 E23.34084
G1 X44.328 Y98.095 E23.37235
G1 X44.491 Y98.1 E23.38049
M204 S5000
M205 X30 Y30
G0 F3600 X44.49 Y98.199
G0 X54.656 Y101.352
G0 X55.161 Y101.347
M204 S1000
M205 X10 Y10
G1 F1800 X55.585 Y101.224 E23.40252
G1 X55.985 Y100.932 E23.42722
G1 X56.23 Y100.571 E23.44899
G1 X56.356 Y100.086 E23.47399
G1 X56.292 Y99.587 E23.49909
G1 X56.094 Y99.199 E23.52082
G1 X55.79 Y98.899 E23.54213
G1 X55.417 Y98.711 E23.56297
G1 X54.997 Y98.645 E23.58418
G1 X54.572 Y98.713 E23.60565
G1 X54.133 Y98.956 E23.63069
G1 X53.849 Y99.283 E23.65229
G1 X53.666 Y99.744 E23.67704
G1 X53.665 Y100.252 E23.70238
G1 X53.852 Y100.725 E23.72776
G1 X54.209 Y101.102 E23.75366
G1 X54.665 Y101.314 E23.77875
G1 X55.161 Y101.347 E23.80355
M204 S5000
M205 X30 Y30
G0 F3600 X55.171 Y101.446
G0 X59.49 Y98.199
G0 X59.491 Y98.1
M204 S1000
M205 X10 Y10
G1 F1800 X66.539 Y98.1 E24.15518
G1 X67.159 Y98.019 E24.18637
G1 X67.765 Y97.775 E24.21896
G1 X68.282 Y97.398 E24.25089
G1 X68.699 Y96.895 E24.28348
G1 X68.975 Y96.303 E24.31607
G1 X69.095 Y95.683 E24.34758
G1 X69.1 Y95.509 E24.35626
G1 X69.1 Y88.472 E24.70734
G1 X69.021 Y87.853 E24.73847
G1 X68.781 Y87.246 E24.77103
G1 X68.397 Y86.718 E24.80361
G1 X67.886 Y86.296 E24.83667
G1 X67.293 Y86.021 E24.86928
G1 X66.672 Y85.905 E24.9008
G1 X66.509 Y85.9 E24.90894
G1 X59.461 Y85.9 E25.26056
G1 X58.841 Y85.981 E25.29176
G1 X58.235 Y86.225 E25.32435
G1 X57.718 Y86.602 E25.35627
G1 X57.301 Y87.105 E25.38887
G1 X57.025 Y87.697 E25.42145
G1 X56.905 Y88.317 E25.45296
G1 X56.9 Y88.491 E25.46165
G1 X56.9 Y95.528 E25.81272
G1 X56.979 Y96.147 E25.84386
G1 X57.219 Y96.754 E25.87642
G1 X57.603 Y97.282 E25.90899
G1 X58.114 Y97.704 E25.94206
G1 X58.707 Y97.979 E25.97467
G1 X59.328 Y98.095 E26.00618
G1 X59.491 Y98.1 E26.01432
M204 S5000
M205 X30 Y30
G0 F3600 X59.49 Y98.199
G0 X57.268 Y102.084
G0 X56.861 Y103.491
G0 X56.861 Y110.53
G0 X57.184 Y111.772
G0 X58.093 Y112.737
G0 X59.49 Y113.199
G0 X59.491 Y113.1
M204 S1000
M205 X10 Y10
G1 F1800 X66.539 Y113.1 E26.36595
G1 X67.159 Y113.019 E26.39714
G1 X67.765 Y112.775 E26.42973
G1 X68.282 Y112.398 E26.46166
G1 X68.699 Y111.895 E26.49425
G1 X68.975 Y111.303 E26.52684
G1 X69.095 Y110.683 E26.55835
G1 X69.1 Y110.509 E26.56703
G1 X69.1 Y103.472 E26.91811
G1 X69.021 Y102.853 E26.94924
G1 X68.781 Y102.246 E26.9818
G1 X68.397 Y101.718 E27.01438
G1 X67.886 Y101.296 E27.04744
G1 X67.293 Y101.022 E27.08003
G1 X66.673 Y100.905 E27.11151
G1 X66.509 Y100.9 E27.11969
G1 X59.461 Y100.9 E27.47132
G1 X58.841 Y100.981 E27.50252
G1 X58.235 Y101.225 E27.53511
G1 X57.718 Y101.602 E27.56703
G1 X57.301 Y102.105 E27.59963
G1 X57.025 Y102.697 E27.63221
G1 X56.905 Y103.317 E27.66372
G1 X56.9 Y103.491 E27.6724
G1 X56.9 Y110.528 E28.02348
G1 X56.979 Y111.147 E28.05461
G1 X57.219 Y111.753 E28.08713
G1 X57.603 Y112.282 E28.11974
G1 X58.114 Y112.704 E28.15281
G1 X58.707 Y112.979 E28.18542
G1 X59.328 Y113.095 E28.21694
G1 X59.491 Y113.1 E28.22507
M204 S5000
M205 X30 Y30
G0 F3600 X59.49 Y113.199
G0 X57.268 Y117.084
G0 X56.861 Y118.491
G0 X56.861 Y125.53
G0 X57.184 Y126.772
G0 X58.093 Y127.737
G0 X59.49 Y128.199
G0 X59.491 Y128.1
M204 S1000
M205 X10 Y10
G1 F1800 X66.539 Y128.1 E28.5767
G1 X67.159 Y128.019 E28.60789
G1 X67.765 Y127.775 E28.64049
G1 X68.282 Y127.398 E28.67241
G1 X68.699 Y126.895 E28.70501
G1 X68.975 Y126.303 E28.73759
G1 X69.095 Y125.683 E28.7691
G1 X69.1 Y125.509 E28.77778
G1 X69.1 Y118.472 E29.12886
G1 X69.021 Y117.853 E29.15999
G1 X68.781 Y117.246 E29.19256
G1 X68.397 Y116.718 E29.22513
G1 X67.886 Y116.296 E29.25819
G1 X67.293 Y116.021 E29.2908
G1 X66.672 Y115.905 E29.32232
G1 X66.509 Y115.9 E29.33046
G1 X59.461 Y115.9 E29.68208
G1 X58.841 Y115.981 E29.71328
G1 X58.235 Y116.225 E29.74587
G1 X57.718 Y116.602 E29.77779
G1 X57.301 Y117.105 E29.81039
G1 X57.025 Y117.697 E29.84298
G1 X56.905 Y118.317 E29.87448
G1 X56.9 Y118.491 E29.88317
G1 X56.9 Y125.528 E30.23425
G1 X56.979 Y126.147 E30.26538
G1 X57.219 Y126.753 E30.2979
G1 X57.603 Y127.282 E30.33051
G1 X58.114 Y127.704 E30.36357
G1 X58.707 Y127.979 E30.39618
G1 X59.328 Y128.095 E30.4277
G1 X59.491 Y128.1 E30.43584
M204 S5000
M205 X30 Y30
G0 F3600 X59.49 Y128.199
G0 X44.49 Y128.199
G0 X44.491 Y128.1
M204 S1000
M205 X10 Y10
G1 F1800 X51.539 Y128.1 E30.78746
G1 X52.159 Y128.019 E30.81866
G1 X52.765 Y127.775 E30.85125
G1 X53.282 Y127.398 E30.88317
G1 X53.699 Y126.895 E30.91577
G1 X53.975 Y126.303 E30.94836
G1 X54.095 Y125.683 E30.97986
G1 X54.1 Y125.509 E30.98855
G1 X54.1 Y118.472 E31.33962
G1 X54.021 Y117.853 E31.37076
G1 X53.781 Y117.246 E31.40332
G1 X53.397 Y116.718 E31.43589
G1 X52.886 Y116.296 E31.46896
G1 X52.293 Y116.021 E31.50157
G1 X51.672 Y115.905 E31.53309
G1 X51.509 Y115.9 E31.54122
G1 X44.461 Y115.9 E31.89285
G1 X43.841 Y115.981 E31.92404
G1 X43.235 Y116.225 E31.95664
G1 X42.718 Y116.602 E31.98856
G1 X42.301 Y117.105 E32.02115
G1 X42.025 Y117.697 E32.05374
G1 X41.905 Y118.317 E32.08525
G1 X41.9 Y118.491 E32.09393
G1 X41.9 Y125.528 E32.44501
G1 X41.979 Y126.147 E32.47614
G1 X42.219 Y126.753 E32.50866
G1 X42.603 Y127.282 E32.54127
G1 X43.114 Y127.704 E32.57434
G1 X43.707 Y127.979 E32.60695
G1 X44.328 Y128.095 E32.63847
G1 X44.491 Y128.1 E32.6466
M204 S5000
M205 X30 Y30
G0 F3600 X44.49 Y128.199
G0 X43.695 Y128.017
G0 X42.574 Y127.309
G0 X41.941 Y126.156
G0 X41.866 Y118.313
G0 X42.066 Y117.515
G0 X44.49 Y113.199
G0 X44.491 Y113.1
M204 S1000
M205 X10 Y10
G1 F1800 X51.539 Y113.1 E32.99823
G1 X52.159 Y113.019 E33.02942
G1 X52.765 Y112.775 E33.06201
G1 X53.282 Y112.398 E33.09394
G1 X53.699 Y111.895 E33.12653
G1 X53.975 Y111.303 E33.15912
G1 X54.095 Y110.683 E33.19063
G1 X54.1 Y110.509 E33.19931
G1 X54.1 Y103.472 E33.55039
G1 X54.021 Y102.853 E33.58152
G1 X53.781 Y102.246 E33.61409
G1 X53.397 Y101.718 E33.64666
G1 X52.886 Y101.296 E33.67972
G1 X52.293 Y101.022 E33.71231
G1 X51.673 Y100.905 E33.74379
G1 X51.509 Y100.9 E33.75198
G1 X44.461 Y100.9 E34.1036
G1 X43.841 Y100.981 E34.1348
G1 X43.235 Y101.225 E34.16739
G1 X42.718 Y101.602 E34.19931
G1 X42.301 Y102.105 E34.23191
G1 X42.025 Y102.697 E34.2645
G1 X41.905 Y103.317 E34.296
G1 X41.9 Y103.491 E34.30469
G1 X41.9 Y110.528 E34.65576
G1 X41.979 Y111.147 E34.6869
G1 X42.219 Y111.753 E34.71941
G1 X42.603 Y112.282 E34.75203
G1 X43.114 Y112.704 E34.78509
G1 X43.707 Y112.979 E34.8177
G1 X44.328 Y113.095 E34.84922
G1 X44.491 Y113.1 E34.85735
M204 S5000
M205 X30 Y30
G0 F3600 X44.49 Y113.199
G0 X74.49 Y113.199
G0 X74.491 Y113.1
M204 S1000
M205 X10 Y10
G1 F1800 X81.539 Y113.1 E35.20898
G1 X82.159 Y113.019 E35.24018
G1 X82.765 Y112.775 E35.27277
G1 X83.282 Y112.398 E35.30469
G1 X83.699 Y111.895 E35.33729
G1 X83.975 Y111.303 E35.36987
G1 X84.095 Y110.683 E35.40138
G1 X84.1 Y110.509 E35.41006
G1 X84.1 Y103.472 E35.76114
G1 X84.021 Y102.853 E35.79227
G1 X83.781 Y102.246 E35.82484
G1 X83.397 Y101.718 E35.85741
G1 X82.886 Y101.296 E35.89047
G1 X82.293 Y101.022 E35.92306
G1 X81.673 Y100.905 E35.95454
G1 X81.509 Y100.9 E35.96273
G1 X74.461 Y100.9 E36.31435
G1 X73.841 Y100.981 E36.34555
G1 X73.235 Y101.225 E36.37814
G1 X72.718 Y101.602 E36.41006
G1 X72.301 Y102.105 E36.44266
G1 X72.025 Y102.697 E36.47525
G1 X71.905 Y103.317 E36.50675
G1 X71.9 Y103.491 E36.51544
G1 X71.9 Y110.528 E36.86652
G1 X71.979 Y111.147 E36.89765
G1 X72.219 Y111.753 E36.93017
G1 X72.603 Y112.282 E36.96278
G1 X73.114 Y112.704 E36.99584
G1 X73.707 Y112.979 E37.02845
G1 X74.328 Y113.095 E37.05997
G1 X74.491 Y113.1 E37.06811
M204 S5000
M205 X30 Y30
G0 F3600 X74.49 Y113.199
G0 X72.268 Y117.084
G0 X71.861 Y118.491
G0 X71.861 Y125.53
G0 X72.184 Y126.772
G0 X73.093 Y127.737
G0 X74.49 Y128.199
G0 X74.491 Y128.1
M204 S1000
M205 X10 Y10
G1 F1800 X81.539 Y128.1 E37.41973
G1 X82.159 Y128.019 E37.45093
G1 X82.765 Y127.775 E37.48352
G1 X83.282 Y127.398 E37.51544
G1 X83.699 Y126.895 E37.54804
G1 X83.975 Y126.303 E37.58063
G1 X84.095 Y125.683 E37.61213
G1 X84.1 Y125.509 E37.62082
G1 X84.1 Y118.472 E37.9719
G1 X84.021 Y117.853 E38.00303
G1 X83.781 Y117.246 E38.03559
G1 X83.397 Y116.718 E38.06816
G1 X82.886 Y116.296 E38.10123
G1 X82.293 Y116.021 E38.13384
G1 X81.672 Y115.905 E38.16536
G1 X81.509 Y115.9 E38.17349
G1 X74.461 Y115.9 E38.52512
G1 X73.841 Y115.981 E38.55631
G1 X73.235 Y116.225 E38.58891
G1 X72.718 Y116.602 E38.62083
G1 X72.301 Y117.105 E38.65343
G1 X72.025 Y117.697 E38.68601
G1 X71.905 Y118.317 E38.71752
G1 X71.9 Y118.491 E38.7262
G1 X71.9 Y125.528 E39.07728
G1 X71.979 Y126.147 E39.10841
G1 X72.219 Y126.753 E39.14093
G1 X72.603 Y127.282 E39.17354
G1 X73.114 Y127.704 E39.20661
G1 X73.707 Y127.979 E39.23922
G1 X74.328 Y128.095 E39.27074
G1 X74.491 Y128.1 E39.27887
M204 S5000
M205 X30 Y30
G0 F3600 X74.49 Y128.199
G0 X89.49 Y128.199
G0 X89.491 Y128.1
M204 S1000
M205 X10 Y10
G1 F1800 X96.539 Y128.1 E39.6305
G1 X97.159 Y128.019 E39.66169
G1 X97.765 Y127.775 E39.69428
G1 X98.282 Y127.398 E39.72621
G1 X98.699 Y126.895 E39.7588
G1 X98.975 Y126.303 E39.79139
G1 X99.095 Y125.683 E39.8229
G1 X99.1 Y125.509 E39.83158
G1 X99.1 Y118.472 E40.18266
G1 X99.021 Y117.853 E40.21379
G1 X98.781 Y117.246 E40.24636
G1 X98.397 Y116.718 E40.27893
G1 X97.886 Y116.296 E40.31199
G1 X97.293 Y116.021 E40.3446
G1 X96.672 Y115.905 E40.37612
G1 X96.509 Y115.9 E40.38426
G1 X89.461 Y115.9 E40.73588
G1 X88.841 Y115.981 E40.76708
G1 X88.235 Y116.225 E40.79967
G1 X87.718 Y116.602 E40.83159
G1 X87.301 Y117.105 E40.86419
G1 X87.025 Y117.697 E40.89678
G1 X86.905 Y118.317 E40.92828
G1 X86.9 Y118.491 E40.93697
G1 X86.9 Y125.528 E41.28804
G1 X86.979 Y126.147 E41.31918
G1 X87.219 Y126.753 E41.35169
G1 X87.603 Y127.282 E41.38431
G1 X88.114 Y127.704 E41.41737
G1 X88.707 Y127.979 E41.44998
G1 X89.328 Y128.095 E41.4815
G1 X89.491 Y128.1 E41.48964
M204 S5000
M205 X30 Y30
G0 F3600 X89.49 Y128.199
G0 X104.49 Y128.199
G0 X104.491 Y128.1
M204 S1000
M205 X10 Y10
G1 F1800 X111.539 Y128.1 E41.84126
G1 X112.159 Y128.019 E41.87246
G1 X112.765 Y127.775 E41.90505
G1 X113.282 Y127.398 E41.93697
G1 X113.699 Y126.895 E41.96957
G1 X113.975 Y126.305 E42.00206
G1 X114.095 Y125.683 E42.03367
G1 X114.1 Y125.509 E42.04235
G1 X114.1 Y118.472 E42.39343
G1 X114.021 Y117.853 E42.42456
G1 X113.781 Y117.246 E42.45713
G1 X113.397 Y116.718 E42.4897
G1 X112.886 Y116.296 E42.52276
G1 X112.293 Y116.021 E42.55537
G1 X111.672 Y115.905 E42.58689
G1 X111.509 Y115.9 E42.59503
G1 X104.461 Y115.9 E42.94665
G1 X103.841 Y115.981 E42.97785
G1 X103.235 Y116.225 E43.01044
G1 X102.718 Y116.602 E43.04236
G1 X102.301 Y117.105 E43.07496
G1 X102.025 Y117.697 E43.10755
G1 X101.905 Y118.317 E43.13905
G1 X101.9 Y118.491 E43.14774
G1 X101.9 Y125.528 E43.49882
G1 X101.979 Y126.147 E43.52995
G1 X102.219 Y126.753 E43.56247
G1 X102.603 Y127.282 E43.59508
G1 X103.114 Y127.704 E43.62814
G1 X103.707 Y127.979 E43.66075
G1 X104.328 Y128.095 E43.69227
G1 X104.491 Y128.1 E43.70041
M204 S5000
M205 X30 Y30
G0 F3600 X104.49 Y128.199
G0 X119.49 Y128.199
G0 X119.491 Y128.1
M204 S1000
M205 X10 Y10
G1 F1800 X126.539 Y128.1 E44.05203
G1 X127.159 Y128.019 E44.08323
G1 X127.765 Y127.775 E44.11582
G1 X128.282 Y127.398 E44.14774
G1 X128.699 Y126.895 E44.18034
